app/themes/uggwc_pro/assets/images/thema/Pflegewissenschaften.svg

<svg width="16" height="16" viewBox="0 0 16 16" fill="none" xmlns="http://www.w3.org/2000/svg">
<g clip-path="url(#clip0_111_201)">
<path d="M15.5032 12.0522L15.9478 12.9479C16.0705 13.1952 15.9695 13.4952 15.7222 13.618L13.6764 14.6457C13.1749 14.8947 12.5653 14.683 12.3267 14.1752L10.365 10H6C5.50234 10 5.08044 9.63406 5.01003 9.14141C3.95103 1.72837 4.01188 2.18887 4 2C4 0.863811 4.94744 -0.051095 6.09538 0.00221748C7.13509 0.0504987 7.97188 0.905499 7.99928 1.946C8.02641 2.97515 7.27578 3.83422 6.29278 3.97847L6.43872 5.00003H10.5C10.7762 5.00003 11 5.22387 11 5.50003V6.50003C11 6.77619 10.7762 7.00003 10.5 7.00003H6.72444L6.86731 8.00003H11C11.1899 8.00003 11.3758 8.05408 11.5361 8.15586C11.6963 8.25764 11.8243 8.40294 11.9051 8.57478L13.7024 12.4L14.833 11.8266C15.0803 11.7038 15.3804 11.8048 15.5032 12.0522ZM9.72994 11H8.96412C8.72075 12.6939 7.26013 14 5.5 14C3.57009 14 2 12.4299 2 10.5C2 9.20297 2.70919 8.06847 3.76012 7.46387C3.64412 6.65247 3.54625 5.96825 3.46362 5.39097C1.43613 6.202 0 8.18634 0 10.5C0 13.5327 2.46728 16 5.5 16C7.74594 16 9.68144 14.6466 10.5347 12.7127L9.72994 11Z" fill="#6E6CFF"/>
</g>
<defs>
<clipPath id="clip0_111_201">
<rect width="16" height="16" fill="white"/>
</clipPath>
</defs>
</svg>

<svg width="16" height="16" fill="none" xmlns="http://www.w3.org/2000/svg"><g clip-path="url(#a)"><path d="m15.503 12.052.445.896a.5.5 0 0 1-.226.67l-2.046 1.028a1 1 0 0 1-1.35-.47L10.366 10H6a1 1 0 0 1-.99-.859C3.951 1.728 4.012 2.19 4 2A2 2 0 0 1 6.095.002 2.007 2.007 0 0 1 8 1.946a2 2 0 0 1-1.706 2.032L6.439 5H10.5a.5.5 0 0 1 .5.5v1a.5.5 0 0 1-.5.5H6.724l.143 1H11a1 1 0 0 1 .905.575l1.797 3.825 1.131-.573a.5.5 0 0 1 .67.225zM9.73 11h-.766A3.505 3.505 0 0 1 5.5 14C3.57 14 2 12.43 2 10.5c0-1.297.71-2.432 1.76-3.036L3.464 5.39A5.509 5.509 0 0 0 0 10.5C0 13.533 2.467 16 5.5 16a5.508 5.508 0 0 0 5.035-3.287L9.73 11z" fill="#6E6CFF"/></g><defs><clipPath id="a"><path fill="#fff" d="M0 0h16v16H0z"/></clipPath></defs></svg>
